X:1
T:Title
%%score ( 1 2 ) { 3 | 4 }
L:1/8
Q:1/4=110
M:4/4
K:Bb
V:1 treble nm="Grand Piano, Staff"
V:2 treble 
V:3 bass nm="Choir Pad, Nativity, CM"
V:4 bass 
V:1
 [B,D]2 [B,D][B,D] [CF]2 [CF]2 | [DB]2 [DB]2 [Dd]3 [Dc] | [DB]2 [DG]2 [EG]2 [Gc]2 | B4 A2 F2 | %4
w: By~Henry~Lahee,~1855 * * * *||||
 [EG]2 [EA]2 [FB]3 F | [FG]2 [EA]2 [DB]2 [Fc]2 | [Fd]2 [Fd]2 [Gc]2 c-[Ec] | [DB]8 |] %8
w: ||||
V:2
 x8 | x8 | x8 | F6 z2 | x8 | x8 | z4 z2 .F2 | x8 |] %8
V:3
 F,2 F,F, F,2 C2 | B,2 B,2 A,3 A, | B,2 B,2 B,2[K:treble] E2 | D4 C2 B,2 | B,2 C2 D3[K:bass] B, | %5
 B,2 C2 B,2 A,2 | B,2 B,2 B,2 A,2 | B,8 |] %8
V:4
 B,,2 B,,B,, A,,2 A,,2 | G,,2 G,2 ^F,3 F, | G,2 G,2 E,2 E,2 | F,6 D,2 | E,2 C,2 B,,3 D, | %5
 E,2 C,2 G,2 F,2 | z2 D,2 E,2 F,2 | B,,8 |] %8

